X:6
T:This Is No My Ain Lassie #2
C:Joe Buchanan's Scottish Tome - Page 168.3
I:168 3
Z:Carl Allison
R:Air
L:1/4
M:4/4
K:D
(A/G/) | "D"F A A a | "D"g f "D7"e d | "G"B/c/d/B/ "D"A > G | "Em"B E E "A7"A/G/ |
"D"F A A a | "D"g f "D7"e d | "G"B/c/d/B/ "A7"A > G | "D"F D D :|
(A/G/) | "D"F A A d | "G"B/c/d/B/ "D"A > F | "G"G B "D"A F | "Em"B E E "A7"A/G/ |
"D"F A A d | "G"B/c/d/B/ "D"A > F | "G"G B "A7"A > G | "D"F D D |]
